public/fonts/icons/text-left.svg

<?xml version="1.0" encoding="utf-8"?>

<!DOCTYPE svg PUBLIC "-//W3C//DTD SVG 1.1//EN" "http://www.w3.org/Graphics/SVG/1.1/DTD/svg11.dtd">
<svg version="1.1" xmlns="http://www.w3.org/2000/svg" xmlns:xlink="http://www.w3.org/1999/xlink" width="32" height="32" viewBox="0 0 32 32">
<g>
</g>
	<path d="M0 6h32v2h-32zM0 10h22v2h-22zM0 14h32v2h-32zM0 18h22v2h-22zM0 22h32v2h-32zM0 26h22v2h-22z" fill="#000000"></path>
</svg>

<svg xmlns="http://www.w3.org/2000/svg" width="32" height="32" viewBox="0 0 32 32"><title>Text Left</title><path d="M0 6h32v2H0zm0 4h22v2H0zm0 4h32v2H0zm0 4h22v2H0zm0 4h32v2H0zm0 4h22v2H0z"/></svg>
